src/status/16/transmission-tray-icon.svg

<svg viewBox="0 0 16 16" xmlns="http://www.w3.org/2000/svg">
 <path d="m4 0c-0.554 0-1 0.446-1 1s0.446 1 1 1h3v5h2v-5h3c0.554 0 1-0.446 1-1s-0.446-1-1-1zm5 7v4h2l-3 3-3-3h2v-4h-5l-2 8v1h16v-1l-2-8z" fill="#2e3440"/>
</svg>

<svg xmlns="http://www.w3.org/2000/svg" viewBox="0 0 16 16">
 <path d="M 4,0 C 3.446,0 3,0.446 3,1 3,1.554 3.446,2 4,2 H 7 V 7 H 9 V 2 h 3 C 12.554,2 13,1.554 13,1 13,0.446 12.554,0 12,0 Z m 5,7 v 4 h 2 L 8,14 5,11 H 7 V 7 H 2 l -2,8 v 1 H 16 V 15 L 14,7 Z" style="fill:#2e3440;opacity:1;fill-opacity:1;stroke:none;fill-rule:nonzero"/>
</svg>
